public/img/CATEGORIES_ICONS/SOCIAL_ICON.svg

<?xml version="1.0" encoding="UTF-8"?>
<svg width="87px" height="122px" viewBox="0 0 87 122" version="1.1" xmlns="http://www.w3.org/2000/svg" xmlns:xlink="http://www.w3.org/1999/xlink">
    <!-- Generator: Sketch 42 (36781) - http://www.bohemiancoding.com/sketch -->
    <title>SOCIAL_ICON</title>
    <desc>Created with Sketch.</desc>
    <defs></defs>
    <g id="Page-1" stroke="none" stroke-width="1" fill="none" fill-rule="evenodd">
        <g id="Home" transform="translate(-628.000000, -1223.000000)">
            <g id="CATEGORIES" transform="translate(122.000000, 1066.000000)">
                <g id="SOCIAL_ICON" transform="translate(506.000000, 156.982000)">
                    <polygon id="Fill-154" fill="#00B1B0" points="0.0465 25.1164 43.3475 0.1164 86.6495 25.1164 86.6495 75.1164 43.3475 100.1164 0.0465 75.1164"></polygon>
                    <path d="M19.9651,119.6738 C19.9651,119.6738 20.8881,120.5728 22.0881,120.5728 C22.7361,120.5728 23.3231,120.2368 23.3231,119.5418 C23.3231,118.0188 19.3051,118.2818 19.3051,115.6678 C19.3051,114.2528 20.5281,113.1968 22.1601,113.1968 C23.8391,113.1968 24.7021,114.1088 24.7021,114.1088 L24.0301,115.3678 C24.0301,115.3678 23.2151,114.6238 22.1481,114.6238 C21.4281,114.6238 20.8641,115.0438 20.8641,115.6438 C20.8641,117.1548 24.8701,116.7828 24.8701,119.5058 C24.8701,120.8608 23.8391,121.9998 22.0641,121.9998 C20.1691,121.9998 19.1251,120.8368 19.1251,120.8368 L19.9651,119.6738 Z" id="Fill-155" fill="#00B1B0"></path>
                    <path d="M30.2351,120.585 C31.7941,120.585 33.0411,119.29 33.0411,117.539 C33.0411,115.859 31.7941,114.612 30.2351,114.612 C28.6751,114.612 27.4281,115.859 27.4281,117.539 C27.4281,119.29 28.6751,120.585 30.2351,120.585 M30.2351,113.197 C32.7411,113.197 34.6361,115.105 34.6361,117.539 C34.6361,120.046 32.7411,122 30.2351,122 C27.7281,122 25.8331,120.046 25.8331,117.539 C25.8331,115.105 27.7281,113.197 30.2351,113.197" id="Fill-156" fill="#00B1B0"></path>
                    <path d="M40.0027,113.1973 C42.0777,113.1973 43.1457,114.3603 43.1457,114.3603 L42.4017,115.5113 C42.4017,115.5113 41.4297,114.6123 40.0747,114.6123 C38.2757,114.6123 37.2207,115.9563 37.2207,117.5393 C37.2207,119.1583 38.3117,120.5853 40.0867,120.5853 C41.5627,120.5853 42.5577,119.5063 42.5577,119.5063 L43.3727,120.6213 C43.3727,120.6213 42.1977,122.0003 40.0267,122.0003 C37.4237,122.0003 35.6257,120.0693 35.6257,117.5623 C35.6257,115.0923 37.4967,113.1973 40.0027,113.1973" id="Fill-157" fill="#00B1B0"></path>
                    <polygon id="Fill-158" fill="#00B1B0" points="44.805 121.857 46.352 121.857 46.352 113.341 44.805 113.341"></polygon>
                    <path d="M51.2473,114.8164 C51.2473,114.8164 51.0553,115.6564 50.8873,116.1354 L50.1323,118.4144 L52.3623,118.4144 L51.6073,116.1354 C51.4513,115.6564 51.2713,114.8164 51.2713,114.8164 L51.2473,114.8164 Z M52.7463,119.6734 L49.7603,119.6734 L49.0403,121.8564 L47.4453,121.8564 L50.4433,113.3404 L52.0623,113.3404 L55.0613,121.8564 L53.4663,121.8564 L52.7463,119.6734 Z" id="Fill-159" fill="#00B1B0"></path>
                    <polygon id="Fill-160" fill="#00B1B0" points="56.1575 113.3408 57.7045 113.3408 57.7045 120.5258 61.3865 120.5258 61.3865 121.8568 56.1575 121.8568"></polygon>
                    <path d="M48.9066,30.5107 C49.7806,30.6457 50.6586,30.7627 51.5286,30.9177 C55.3316,31.5947 58.8436,33.0357 62.1566,34.9927 C62.3156,35.0867 62.4766,35.1767 62.6716,35.2887 C62.7266,35.0317 62.7636,34.8167 62.8186,34.6067 C63.0356,33.7797 63.7666,33.2017 64.6206,33.1917 C65.3406,33.1827 66.0616,33.1887 66.7816,33.1897 C67.9846,33.1927 68.8326,33.9427 68.8416,35.1387 C68.8676,38.8277 68.8646,42.5157 68.8426,46.2047 C68.8356,47.2917 68.1316,48.0517 67.0376,48.1507 C66.2226,48.2247 65.3906,48.2227 64.5736,48.1587 C63.5316,48.0777 62.9516,47.4817 62.7566,46.4417 C62.7306,46.3087 62.7136,46.1737 62.6826,45.9777 C61.7056,46.1927 60.7516,46.4347 59.7856,46.6117 C57.3736,47.0547 54.9456,47.4227 52.4876,47.2657 C51.6526,47.2127 50.7706,47.0017 50.0236,46.6327 C48.2126,45.7407 46.3386,45.7887 44.4066,45.8867 C42.3406,45.9927 40.2666,45.9547 38.1966,45.9377 C37.7646,45.9337 37.3126,45.8017 36.9076,45.6357 C36.0866,45.2977 35.5846,44.6797 35.5246,43.7627 C35.4606,42.7797 35.8736,42.0127 36.7666,41.6537 C37.7266,41.2687 38.7356,40.9677 39.7506,40.7567 C41.6076,40.3697 43.4786,40.0287 45.3576,39.7617 C46.3006,39.6267 47.2736,39.7017 48.2326,39.6737 C48.5396,39.6647 48.8486,39.6497 49.1516,39.6027 C49.4846,39.5507 49.7226,39.3697 49.7386,38.9967 C49.7556,38.6017 49.5596,38.3377 49.1946,38.2257 C49.0026,38.1667 48.7886,38.1597 48.5856,38.1597 C45.4836,38.1577 42.4336,38.5957 39.4576,39.4327 C37.7186,39.9207 36.0116,40.5527 34.3386,41.2387 C33.5646,41.5557 32.8696,42.1107 32.2026,42.6377 C31.0766,43.5287 29.8616,44.0467 28.4056,43.7937 C26.6436,43.4867 25.8386,41.7257 26.7616,40.1837 C27.4336,39.0617 28.3936,38.1967 29.4166,37.4147 C33.8256,34.0427 38.7296,31.7537 44.2076,30.7457 C44.7076,30.6537 45.2126,30.5887 45.7146,30.5107 L48.9066,30.5107 Z" id="Fill-161" fill="#FEFEFE"></path>
                    <path d="M24.0039,64.9079 C23.8889,65.9479 23.4939,66.7189 22.4919,66.9669 C22.0859,67.0679 21.6399,67.0149 21.2129,67.0219 C20.7669,67.0289 20.3209,67.0249 19.8739,67.0229 C18.7139,67.0189 17.8619,66.2519 17.8539,65.0859 C17.8289,61.3979 17.8319,57.7089 17.8529,54.0199 C17.8589,52.9259 18.5549,52.1639 19.6459,52.0659 C20.4619,51.9919 21.2929,51.9909 22.1109,52.0519 C23.1519,52.1309 23.7409,52.7289 23.9369,53.7609 C23.9629,53.8949 23.9809,54.0299 24.0139,54.2329 C24.9849,54.0189 25.9379,53.7829 26.9029,53.6039 C29.3139,53.1579 31.7429,52.7929 34.2009,52.9469 C35.0369,52.9989 35.9189,53.2109 36.6659,53.5789 C38.4759,54.4699 40.3519,54.4569 42.2829,54.3189 C44.5709,54.1549 46.8679,53.9429 49.1509,54.3709 C50.7019,54.6629 51.5489,56.0109 51.0609,57.3569 C50.8499,57.9379 50.4619,58.3939 49.8889,58.5829 C48.7899,58.9459 47.6799,59.3149 46.5469,59.5329 C44.5169,59.9249 42.4689,60.2319 40.4219,60.5209 C39.7659,60.6139 39.0859,60.5359 38.4159,60.5379 C38.2619,60.5379 38.1069,60.5359 37.9539,60.5469 C37.2499,60.5969 36.9569,60.8089 36.9569,61.2619 C36.9559,61.7699 37.3199,62.0729 38.0019,62.0509 C39.1829,62.0119 40.3699,61.9979 41.5419,61.8619 C44.6609,61.4999 47.7169,60.8379 50.6629,59.7259 C52.1269,59.1739 53.5029,58.4879 54.7019,57.4349 C55.7179,56.5429 56.9589,56.1609 58.3349,56.4239 C60.0379,56.7479 60.8349,58.4729 59.9579,59.9779 C59.2539,61.1859 58.2149,62.0919 57.1199,62.9229 C52.9389,66.0929 48.2979,68.2949 43.1479,69.3439 C39.4559,70.0969 35.8199,69.6599 32.2369,68.6079 C29.4959,67.8029 26.9109,66.6459 24.4649,65.1739 C24.3349,65.0959 24.2029,65.0229 24.0039,64.9079" id="Fill-162" fill="#FEFEFE"></path>
                </g>
            </g>
        </g>
    </g>
</svg>

<svg width="87" height="122" viewBox="0 0 87 122" xmlns="http://www.w3.org/2000/svg"><title>SOCIAL_ICON</title><g fill="none" fill-rule="evenodd"><path fill="#00B1B0" d="M.046 25.098l43.301-25 43.303 25v50l-43.303 25-43.3-25zM19.965 119.656s.923.899 2.123.899c.648 0 1.235-.336 1.235-1.031 0-1.523-4.018-1.26-4.018-3.874 0-1.415 1.223-2.471 2.855-2.471 1.68 0 2.542.912 2.542.912l-.672 1.259s-.815-.744-1.882-.744c-.72 0-1.284.42-1.284 1.02 0 1.51 4.006 1.139 4.006 3.862 0 1.355-1.03 2.494-2.806 2.494-1.895 0-2.939-1.163-2.939-1.163l.84-1.163zM30.235 120.567c1.56 0 2.806-1.295 2.806-3.046 0-1.68-1.247-2.927-2.806-2.927-1.56 0-2.807 1.247-2.807 2.927 0 1.751 1.247 3.046 2.807 3.046m0-7.388c2.506 0 4.401 1.908 4.401 4.342 0 2.507-1.895 4.461-4.4 4.461-2.508 0-4.403-1.954-4.403-4.461 0-2.434 1.895-4.342 4.402-4.342M40.003 113.18c2.075 0 3.143 1.162 3.143 1.162l-.744 1.151s-.972-.899-2.327-.899c-1.8 0-2.854 1.344-2.854 2.927 0 1.62 1.09 3.046 2.866 3.046 1.476 0 2.47-1.079 2.47-1.079l.816 1.115s-1.175 1.38-3.346 1.38c-2.603 0-4.401-1.932-4.401-4.439 0-2.47 1.87-4.365 4.377-4.365M44.805 121.839h1.547v-8.516h-1.547zM51.247 114.798s-.192.84-.36 1.32l-.755 2.278h2.23l-.755-2.279c-.156-.479-.336-1.319-.336-1.319h-.024zm1.5 4.857H49.76l-.72 2.183h-1.595l2.998-8.516h1.62l2.998 8.516h-1.595l-.72-2.183zM56.157 113.323h1.548v7.185h3.681v1.33h-5.229z"/><path d="M48.907 30.493c.874.135 1.752.252 2.622.407 3.803.677 7.315 2.118 10.628 4.075.159.094.32.184.515.296.055-.257.092-.472.147-.682a1.883 1.883 0 0 1 1.802-1.415c.72-.01 1.44-.003 2.16-.002 1.204.003 2.052.753 2.06 1.949a850.4 850.4 0 0 1 .002 11.066c-.007 1.087-.711 1.847-1.805 1.946a14.69 14.69 0 0 1-2.464.008c-1.042-.081-1.622-.677-1.817-1.717-.026-.133-.043-.268-.074-.464-.977.215-1.931.457-2.897.634-2.412.443-4.84.81-7.298.654-.835-.053-1.717-.264-2.464-.633-1.811-.892-3.685-.844-5.617-.746-2.066.106-4.14.068-6.21.05-.432-.003-.884-.135-1.29-.301-.82-.338-1.322-.956-1.382-1.873-.064-.983.349-1.75 1.242-2.11a17.77 17.77 0 0 1 2.984-.896 88.627 88.627 0 0 1 5.607-.995c.943-.135 1.916-.06 2.875-.088.307-.01.616-.024.919-.071.333-.052.57-.233.587-.606.017-.395-.18-.66-.544-.771a2.101 2.101 0 0 0-.61-.066 33.534 33.534 0 0 0-9.127 1.273c-1.74.488-3.446 1.12-5.12 1.806-.773.317-1.468.872-2.135 1.399-1.126.89-2.341 1.409-3.797 1.156-1.762-.307-2.567-2.068-1.644-3.61.672-1.122 1.632-1.987 2.655-2.77 4.409-3.371 9.313-5.66 14.79-6.668.5-.092 1.006-.157 1.508-.235h3.192zM24.004 64.89c-.115 1.04-.51 1.81-1.512 2.059-.406.1-.852.048-1.28.055-.445.007-.891.003-1.338 0-1.16-.003-2.012-.77-2.02-1.936a887.372 887.372 0 0 1-.001-11.066c.006-1.094.702-1.856 1.793-1.954a15.028 15.028 0 0 1 2.465-.014c1.04.079 1.63.677 1.826 1.709.026.134.044.269.077.472.97-.214 1.924-.45 2.889-.63 2.41-.445 4.84-.81 7.298-.656.836.052 1.718.264 2.465.632 1.81.89 3.686.878 5.617.74 2.288-.164 4.585-.376 6.868.052 1.55.292 2.398 1.64 1.91 2.986-.211.58-.6 1.037-1.172 1.226-1.1.363-2.21.732-3.342.95-2.03.392-4.078.699-6.125.988-.656.093-1.336.015-2.006.017-.154 0-.31-.002-.462.009-.704.05-.997.262-.997.715-.001.508.363.81 1.045.789 1.18-.04 2.368-.053 3.54-.19 3.119-.361 6.175-1.023 9.12-2.135 1.465-.552 2.84-1.238 4.04-2.291 1.016-.892 2.257-1.274 3.633-1.011 1.703.324 2.5 2.049 1.623 3.554-.704 1.208-1.743 2.114-2.838 2.945-4.181 3.17-8.822 5.372-13.972 6.42-3.692.754-7.328.317-10.911-.735a33.134 33.134 0 0 1-7.772-3.434c-.13-.078-.262-.151-.461-.266" fill="#FEFEFE"/></g></svg>
